gama.ui.shared/icons_svg/light/experiment/experiment.simulations.duplicate.svg

<svg height="25" viewBox="-274.774 -3215.705 25 25" width="25" xmlns="http://www.w3.org/2000/svg"><g fill="none"><path d="m-254.11414-3215.205h-16.32c-2.12076 0-3.84 1.719-3.84 3.84v16.32c0 2.1207 1.71924 3.84 3.84 3.84h16.32c2.12078 0 3.84-1.7193 3.84-3.84v-16.32c0-2.121-1.71922-3.84-3.84-3.84z" fill="#fff"/><path d="m-254.11414-3215.205h-16.32c-2.12076 0-3.84 1.719-3.84 3.84v16.32c0 2.1207 1.71924 3.84 3.84 3.84h16.32c2.12078 0 3.84-1.7193 3.84-3.84v-16.32c0-2.121-1.71922-3.84-3.84-3.84z" stroke="#000" stroke-linecap="round" stroke-linejoin="round" stroke-width=".25"/><path d="m-274.27414-3215.205h24v24h-24z"/><path d="m-265.21215-3196.5774h-2.57141v2.5714h-.85714v-2.5714h-2.5714v-.8572h2.5714v-2.5714h.85714v2.5714h2.57141z" fill="#cf7837"/><path d="m-265.21215-3196.5774h-2.57141v2.5714h-.85714v-2.5714h-2.5714v-.8572h2.5714v-2.5714h.85714v2.5714h2.57141z" stroke="#cf7839" stroke-linecap="round" stroke-linejoin="round" stroke-width=".25"/><path d="m-265.17572-3201.9094c-2.97425-.3586-4.59438-3.7449-2.92694-6.2556 2.3855-3.5944 7.8262-1.537 7.49503 2.84-.13037 1.7324-1.37097 2.6934-1.68005 4.26-.72438 3.668 3.86578 5.43 5.91801 2.4232 1.39514-2.0449-.06833-4.9172-2.52427-5.0938-.31646-.022-.87366.142-.97144-.2691-.1104-.4636.40581-.492.72648-.491 3.0552.0127 5.04644 3.3137 3.59874 6-2.05748 3.8197-7.92397 2.2487-7.56441-2.2003.18819-2.3267 2.41703-3.54 1.61591-6.122-.89154-2.8703-4.60699-3.337-6.08624-.735-1.16908 2.0564.21344 4.6564 2.55898 4.897-.16821-.3447-.51726-.6517-.69808-.9797-.2229-.4037.25652-.8473.64867-.4173.42685.469.77379 1.0954 1.2143 1.5675.10933.1975.05677.4037-.06517.5825-.5667.327-1.13126.9777-1.68637 1.2805-.31855.1735-.71913-.1115-.5488-.4668.11775-.246.96934-.757.97775-.8201z" fill="#5c76a1"/><path d="m-254.45666-3211.5253c0-.6293-.40814-1.1394-.91159-1.1394h-3.03861c-.50347 0-.91159.5101-.91159 1.1394v2.2788c0 .6295.40812 1.1395.91159 1.1395h3.03861c.50345 0 .91159-.51.91159-1.1395z" fill="#fff"/><path d="m-254.45666-3211.5253c0-.6293-.40814-1.1394-.91159-1.1394h-3.03861c-.50347 0-.91159.5101-.91159 1.1394v2.2788c0 .6295.40812 1.1395.91159 1.1395h3.03861c.50345 0 .91159-.51.91159-1.1395z" stroke="#528636" stroke-linejoin="round" stroke-width=".5"/><path d="m-252.16198-3209.3113c0-.6293-.40812-1.1394-.91158-1.1394h-3.03862c-.50347 0-.91159.5101-.91159 1.1394v2.2788c0 .6295.40812 1.1395.91159 1.1395h3.03862c.50346 0 .91158-.51.91158-1.1395z" fill="#fff"/><path d="m-252.16198-3209.3113c0-.6293-.40812-1.1394-.91158-1.1394h-3.03862c-.50347 0-.91159.5101-.91159 1.1394v2.2788c0 .6295.40812 1.1395.91159 1.1395h3.03862c.50346 0 .91158-.51.91158-1.1395z" stroke="#528636" stroke-linejoin="round" stroke-width=".5"/></g></svg>

<?xml version="1.0" encoding="UTF-8" standalone="no"?>
<!DOCTYPE svg PUBLIC "-//W3C//DTD SVG 1.1//EN" "http://www.w3.org/Graphics/SVG/1.1/DTD/svg11.dtd">
<svg xmlns:dc="http://purl.org/dc/elements/1.1/" xmlns:xl="http://www.w3.org/1999/xlink" version="1.1" xmlns="http://www.w3.org/2000/svg" viewBox="-274.77414 -3215.705 25 25" width="25" height="25">
  <defs/>
  <g id="SOURCES" stroke-dasharray="none" stroke="none" stroke-opacity="1" fill="none" fill-opacity="1">
    <title>SOURCES</title>
    <g id="SOURCES_New">
      <title>New</title>
      <g id="Group_10437">
        <g id="Group_7143">
          <g id="Graphic_7145">
            <path d="M -254.11414 -3215.205 L -270.43414 -3215.205 C -272.5549 -3215.205 -274.27414 -3213.486 -274.27414 -3211.365 L -274.27414 -3195.045 C -274.27414 -3192.9243 -272.5549 -3191.205 -270.43414 -3191.205 L -254.11414 -3191.205 C -251.99336 -3191.205 -250.27414 -3192.9243 -250.27414 -3195.045 L -250.27414 -3211.365 C -250.27414 -3213.486 -251.99336 -3215.205 -254.11414 -3215.205 Z" fill="white"/>
            <path d="M -254.11414 -3215.205 L -270.43414 -3215.205 C -272.5549 -3215.205 -274.27414 -3213.486 -274.27414 -3211.365 L -274.27414 -3195.045 C -274.27414 -3192.9243 -272.5549 -3191.205 -270.43414 -3191.205 L -254.11414 -3191.205 C -251.99336 -3191.205 -250.27414 -3192.9243 -250.27414 -3195.045 L -250.27414 -3211.365 C -250.27414 -3213.486 -251.99336 -3215.205 -254.11414 -3215.205 Z" stroke="black" stroke-linecap="round" stroke-linejoin="round" stroke-width=".25"/>
          </g>
          <g id="Graphic_7144">
            <rect x="-274.27414" y="-3215.205" width="24" height="24" stroke="gray" stroke-opacity="0" stroke-linecap="round" stroke-linejoin="round" stroke-width=".25"/>
          </g>
        </g>
        <g id="Graphic_7140">
          <path d="M -265.21215 -3196.5774 L -267.78356 -3196.5774 L -267.78356 -3194.006 L -268.6407 -3194.006 L -268.6407 -3196.5774 L -271.2121 -3196.5774 L -271.2121 -3197.4346 L -268.6407 -3197.4346 L -268.6407 -3200.006 L -267.78356 -3200.006 L -267.78356 -3197.4346 L -265.21215 -3197.4346 L -265.21215 -3196.5774 Z" fill="#cf7837"/>
          <path d="M -265.21215 -3196.5774 L -267.78356 -3196.5774 L -267.78356 -3194.006 L -268.6407 -3194.006 L -268.6407 -3196.5774 L -271.2121 -3196.5774 L -271.2121 -3197.4346 L -268.6407 -3197.4346 L -268.6407 -3200.006 L -267.78356 -3200.006 L -267.78356 -3197.4346 L -265.21215 -3197.4346 L -265.21215 -3196.5774 Z" stroke="#cf7839" stroke-linecap="round" stroke-linejoin="round" stroke-width=".25"/>
        </g>
        <g id="Graphic_10012">
          <path d="M -265.17572 -3201.9094 C -268.14997 -3202.268 -269.7701 -3205.6543 -268.10266 -3208.165 C -265.71716 -3211.7594 -260.27646 -3209.702 -260.60763 -3205.325 C -260.738 -3203.5926 -261.9786 -3202.6316 -262.28768 -3201.065 C -263.01206 -3197.397 -258.4219 -3195.635 -256.36967 -3198.6418 C -254.97453 -3200.6867 -256.438 -3203.559 -258.89394 -3203.7356 C -259.2104 -3203.7576 -259.7676 -3203.5936 -259.86538 -3204.0047 C -259.97578 -3204.4683 -259.45957 -3204.4967 -259.1389 -3204.4957 C -256.0837 -3204.483 -254.09246 -3201.182 -255.54016 -3198.4957 C -257.59764 -3194.676 -263.46413 -3196.247 -263.10457 -3200.696 C -262.91638 -3203.0227 -260.68754 -3204.236 -261.48866 -3206.818 C -262.3802 -3209.6883 -266.09565 -3210.155 -267.5749 -3207.553 C -268.74398 -3205.4966 -267.36146 -3202.8966 -265.01592 -3202.656 C -265.18413 -3203.0007 -265.53318 -3203.3077 -265.714 -3203.6357 C -265.9369 -3204.0394 -265.45748 -3204.483 -265.06533 -3204.053 C -264.63848 -3203.584 -264.29154 -3202.9576 -263.85103 -3202.4855 C -263.7417 -3202.288 -263.79426 -3202.0818 -263.9162 -3201.903 C -264.4829 -3201.576 -265.04746 -3200.9253 -265.60257 -3200.6225 C -265.92112 -3200.449 -266.3217 -3200.734 -266.15137 -3201.0893 C -266.03362 -3201.3353 -265.18203 -3201.8463 -265.17362 -3201.9094 Z" fill="#5c76a1"/>
        </g>
        <g id="Graphic_10014">
          <path d="M -254.45666 -3211.5253 C -254.45666 -3212.1546 -254.8648 -3212.6647 -255.36825 -3212.6647 L -258.40686 -3212.6647 C -258.91033 -3212.6647 -259.31845 -3212.1546 -259.31845 -3211.5253 L -259.31845 -3209.2465 C -259.31845 -3208.617 -258.91033 -3208.107 -258.40686 -3208.107 L -255.36825 -3208.107 C -254.8648 -3208.107 -254.45666 -3208.617 -254.45666 -3209.2465 Z" fill="white"/>
          <path d="M -254.45666 -3211.5253 C -254.45666 -3212.1546 -254.8648 -3212.6647 -255.36825 -3212.6647 L -258.40686 -3212.6647 C -258.91033 -3212.6647 -259.31845 -3212.1546 -259.31845 -3211.5253 L -259.31845 -3209.2465 C -259.31845 -3208.617 -258.91033 -3208.107 -258.40686 -3208.107 L -255.36825 -3208.107 C -254.8648 -3208.107 -254.45666 -3208.617 -254.45666 -3209.2465 Z" stroke="#528636" stroke-linecap="butt" stroke-linejoin="round" stroke-width=".5"/>
        </g>
        <g id="Graphic_7138">
          <path d="M -252.16198 -3209.3113 C -252.16198 -3209.9406 -252.5701 -3210.4507 -253.07356 -3210.4507 L -256.11218 -3210.4507 C -256.61565 -3210.4507 -257.02377 -3209.9406 -257.02377 -3209.3113 L -257.02377 -3207.0325 C -257.02377 -3206.403 -256.61565 -3205.893 -256.11218 -3205.893 L -253.07356 -3205.893 C -252.5701 -3205.893 -252.16198 -3206.403 -252.16198 -3207.0325 Z" fill="white"/>
          <path d="M -252.16198 -3209.3113 C -252.16198 -3209.9406 -252.5701 -3210.4507 -253.07356 -3210.4507 L -256.11218 -3210.4507 C -256.61565 -3210.4507 -257.02377 -3209.9406 -257.02377 -3209.3113 L -257.02377 -3207.0325 C -257.02377 -3206.403 -256.61565 -3205.893 -256.11218 -3205.893 L -253.07356 -3205.893 C -252.5701 -3205.893 -252.16198 -3206.403 -252.16198 -3207.0325 Z" stroke="#528636" stroke-linecap="butt" stroke-linejoin="round" stroke-width=".5"/>
        </g>
      </g>
    </g>
  </g>
</svg>
